X:19
T:King Roberts Address. Dix.19
T:Scots Wha Ha,aka. Dix.19
M:4/4
L:1/16
Q:1/8=120
S:Anon. MS dated 1811, from Dixon collection, Holton le Moor, Lincs.
R:song
C:
O:England;Lincolnshire;Holton le Moor
Z:vmp.R.Greig 2010 <http://www.village-music-project.org.uk>
K:C
G3 G G3 A G2 A2 c4|A3 A A3 G A2 B2 (c2d2)|
w:Scots, wha ha wi’ Wal-lace bled; Scots wham Bruce has af-ten l-ed
e3 g d3 e c3 d He2 e d|c2 A2 A2 G G4z2:|
w:Wel-come to your go-ry bed or to glor-i-ous vic-tory
|:e3 e e3 d e2 f g4|d3 d d3 c d3 e f4|
w:Now’s the day, and now’s the hour! See the front of Bat-tle lowr!
(gf) (ef) e3 d c3 d e2 e d|c2 A2 A3 GG4z2:|
w:S-ee a-ppr-oach proud Ed-ward’s pow’r! Ed-ward, Chains and Sla-ver-y!
W:%
W:Wha will be a traitor-knave?
W:Wha can fill a cowards’ grave?
W:Wha sae base as be a Slave?
W:Let him turn and flee.-
W:Wha for Scotland’s King and law,
W:Freedom’s sword will strongly draw,
W:Freemen stand, or freeman fa’,
W:Caledonian! on wi’ me-
W:%
W:%
W:By Oppression’s woes and pains!
W:By your sons in servile chains!
W:We will drain our dearest veins,
W:But they shall be, shall be free!
W:Lay the proud oppressers low!
W:Tyrants fall in every blow,
W:Liberty s in every blow!
W:Onward let us do or die.

